X:1
T:[ID 2-44b]
T:[ID 2-44b]
T:Bezeichnung standardisiert: Menuett Men\"uet 4.
T:Urheber unbekannt Datum in der hier transkribierten schriftlichen Quelle: 1767
C:Urheber unbekannt
C:Datum in der hier transkribierten schriftlichen Quelle: 1767
L:1/8
M:3/4
K:D
V:1 treble 
V:1
 d2 d2 d2 | a2 a2 a2 | fdgecA | d4 e2 | fdgecA | d4 d'2 | c'2 bab^g | a6 :: a2 fgaf | g2 efge | %10
 fagfed | c2 Bc A2 | d'2 d'2 d'2 | d'4 f'2 | e'2 e'd'e'c' | d'4 f'2 | e'2 e'd'e'c' | d'4 g2 | %18
 f2 edec | d6 :| %20

